X:1
T:Title
%%score { ( 1 4 ) | ( 2 3 5 ) }
L:1/8
M:4/4
K:G
V:1 treble nm="Grand Piano"
V:4 treble 
V:2 treble 
V:3 treble 
V:5 treble 
V:1
 z4 z2[Q:1/4=100] G>A | B>B B>B .B2 .[DFB]>.[CFA] | .[B,G]2 .[CEG]2 .[B,DG]2 [B,DG]>[CDA] | %3
 [DGB]2 [DGB]>[DGB] .[^CGB]2 [CEG]2 | [DFA]6 G>A | B>B B>B B2 [DA]>[DG] | %6
 [EG]>[EG] [EG]>[EG] [Ec]2 [Ec][Ec] | [Ec] [DB]3 [CFA]2 [DFB]2 |[M:3/4] [B,G]6 |[M:1/4] DB | %10
[M:4/4] B6 z2 | c6 z2 | c B3 A2 [^CB]2 | A6 z2 | B>B B>B B2 [DA]>[DG] | %15
[M:9/8] [Ec]>[Ec][Ec]- [Ec]/[Ec]/ [Ec]2- [Ec][Ec][Ec] |[M:4/4] [Ec] [DB]3 [CFA]2 [DFB]2 | %17
[M:3/4] [B,G]6 |] %18
V:2
 z4 z2 [G,B,D]>[G,CD] | [G,DG]>[G,DG] [G,DG]>[G,DG] .[G,DG]2[K:bass] .D,>.D, | %2
 .E,2 .C,2 .G,2 G,>G, | G,2 G,>G, z A A,,2 | D,6[K:treble] [G,B,D]>[G,CD] | %5
 [G,DG]>[G,DG] [G,DG]>[G,DG] [G,DG]2[K:bass] [C,G,]>[B,,G,] | %6
 [C,G,]>[C,C] [C,C]>[C,C] [C,G,]2 [C,G,][C,G,] | [D,G,] [D,G,]3 D,2 D,2 |[M:3/4] G,,6 | %9
[M:1/4] B,[K:treble]D |[M:4/4] z2 z G G,2 CE | .E2[K:bass] .[C,G,]2 .[C,G,]2 .[C,G,][C,G,] | %12
 [G,E] [G,D]3 [E,G,^C]2 [A,,G,]2 | D,2- [D,-D][D,-D] [D,D]2[K:treble] [G,B,D]>[G,CD] | %14
 [G,DG]>[G,DG] [G,DG]>[G,DG] [G,DG]2[K:bass] [B,,G,]>[B,,G,] | %15
[M:9/8] [C,G,]>[C,G,][C,G,]- [C,G,]/[C,G,]/ [C,G,]2- [C,G,][C,G,][C,G,] | %16
[M:4/4] [D,G,] [D,G,]3 D,2 D,2 |[M:3/4] G,,6 |] %18
V:3
 x8 | x6[K:bass] x2 | x8 | z4 E,2 z2 | x6[K:treble] x2 | x6[K:bass] x2 | x8 | x8 |[M:3/4] x6 | %9
[M:1/4] x[K:treble] x |[M:4/4] D4 z4 | x2[K:bass] x6 | x8 | [F,D]2 z2 z4[K:treble] | %14
 x6[K:bass] x2 |[M:9/8] x9 |[M:4/4] x8 |[M:3/4] x6 |] %18
V:4
 x8 | x8 | x8 | x8 | x8 | x8 | x8 | x8 |[M:3/4] x6 |[M:1/4] x2 |[M:4/4] z4 G2 Ec | %11
 z2 .E2 .E2 [Ec][Ec] | x8 | z2 FF F2 G>A | x8 |[M:9/8] x9 |[M:4/4] x8 |[M:3/4] x6 |] %18
V:5
 x8 | x6[K:bass] x2 | x8 | x8 | x6[K:treble] x2 | x6[K:bass] x2 | x8 | x8 |[M:3/4] x6 | %9
[M:1/4] x[K:treble] x |[M:4/4] z2 G,2 z4 | x2[K:bass] x6 | x8 | x6[K:treble] x2 | x6[K:bass] x2 | %15
[M:9/8] x9 |[M:4/4] x8 |[M:3/4] x6 |] %18

